icons/entity/icon_message_m_black.svg

<svg width="24" height="24" viewBox="0 0 24 24" xmlns="http://www.w3.org/2000/svg"><g fill="none" fill-rule="evenodd"><path d="M0 0h24v24H0z"/><path d="M6 20H3.5c-.827 0-1.5-.673-1.5-1.5v-13C2 4.673 2.673 4 3.5 4h17c.827 0 1.5.673 1.5 1.5v13c0 .827-.673 1.5-1.5 1.5H6zm15-5V5.5a.5.5 0 0 0-.5-.5h-17a.5.5 0 0 0-.5.5v13a.5.5 0 0 0 .5.5h17a.5.5 0 0 0 .5-.5V15z" fill="#0B1F35"/><path fill="#0B1F35" opacity=".4" d="M12 12.606L2.218 5.913l.564-.826L12 11.394l9.218-6.307.564.826z"/></g></svg>

<?xml version="1.0" encoding="UTF-8"?>
<svg width="24px" height="24px" viewBox="0 0 24 24" version="1.1" xmlns="http://www.w3.org/2000/svg" xmlns:xlink="http://www.w3.org/1999/xlink">
    <!-- Generator: Sketch 48.2 (47327) - http://www.bohemiancoding.com/sketch -->
    <title>icon_message_m_black</title>
    <desc>Created with Sketch.</desc>
    <defs></defs>
    <g id="Artboard-2" stroke="none" stroke-width="1" fill="none" fill-rule="evenodd" transform="translate(-46.000000, -254.000000)">
        <g id="icon_message_m_white" transform="translate(46.000000, 254.000000)">
            <g id="art">
                <rect id="Rectangle-path" x="0" y="0" width="24" height="24"></rect>
                <path d="M6,20 L3.5,20 C2.673,20 2,19.327 2,18.5 L2,5.5 C2,4.673 2.673,4 3.5,4 L20.5,4 C21.327,4 22,4.673 22,5.5 L22,15 L22,18.5 C22,19.327 21.327,20 20.5,20 L6,20 Z M21,15 L21,5.5 C21,5.224 20.776,5 20.5,5 L3.5,5 C3.224,5 3,5.224 3,5.5 L3,18.5 C3,18.776 3.224,19 3.5,19 L6,19 L20.5,19 C20.776,19 21,18.776 21,18.5 L21,15 Z" id="Combined-Shape" fill="#0B1F35"></path>
                <polygon id="Shape" fill="#0B1F35" opacity="0.4" points="12 12.606 2.218 5.913 2.782 5.087 12 11.394 21.218 5.087 21.782 5.913"></polygon>
            </g>
        </g>
    </g>
</svg>
